!! J.S. Bach "Sarabanda" from Partita No. 2, solo violin, BWV 1004.
!! From 'Neue Ausgabe Saemtlicher Werke' Serie VI: Kammermusikwerke,
!! Band 1 ('Werke fuer Violine') Baerenreiter Kassel (Basel) 1958; p.32
!! This work has been error-checked using the double-entry method.
!! NOTE: The repeated sections between bars 1 and 16 and between
!!       bars 18 and 47 has been expanded in this encoding.
!! NOTE: The 'monophonic' score has been expanded to a four-voice
!!       format to simplify the encoding of multiple stops.
!! NOTE: This encoding entails a considerable amount of interpretation
!!       of the voice of the 'parts'.
**kern	**kern	**kern	**kern
*M3/4	*M3/4	*M3/4	*M3/4
=1	=1	=1	=1
4d	4a	4dd	4ff
2r	4.g	4.b-	2r
.	8r	8b-	.
=2	=2	=2	=2
4c#	4g	4b-	4ee
2r	4.g	4.a	2r
.	8r	8a	.
=3	=3	=3	=3
4d	4f	8a	2.r
.	.	8b-	.
4cn	4e	8b-	.
.	.	8a	.
4B-	4d	8a	.
.	.	8dd	.
=4	=4	=4	=4
4r	8e-	{16dd	2.r
.	.	16cc}	.
.	8r	{16b-	.
.	.	16a}	.
2A	2r	{4g	.
.	.	16.f#T}	.
.	.	{32d	.
.	.	32en	.
.	.	32f#	.
.	.	32g	.
.	.	32a}	.
=5	=5	=5	=5
8G	8d	8b-	2.r
8r	8r	{16dd	.
.	.	16cc	.
2r	2r	16b-	.
.	.	16a	.
.	.	16g	.
.	.	16fn	.
.	.	16e	.
.	.	16d	.
.	.	16c#	.
.	.	16d}	.
=6	=6	=6	=6
2.r	2r	{16G	2.r
.	.	16e	.
.	.	16cc#	.
.	.	16bb-}	.
.	.	4.aa	.
.	8r	.	.
.	8g	8cc#	.
=7	=7	=7	=7
2.r	4f	8dd	4r
.	.	8a	.
.	4e	4cc#	4gg
.	4d	4dd	16gg
.	.	.	{16ff
.	.	.	16ee
.	.	.	16ff}
=8	=8	=8	=8
2.r	2.a	4dd	2.ee
.	.	8cc#	.
.	.	8bn	.
.	.	4cc#	.
=9	=9	=9	=9
4d	4a	4dd	4ff
2r	4.g	4.b-	2r
.	8r	8b-	.
=10	=10	=10	=10
4c#	4g	4b-	4ee
2r	4.g	4.a	2r
.	8r	8a	.
=11	=11	=11	=11
4d	4f	8a	2.r
.	.	8b-	.
4cn	4e	8b-	.
.	.	8a	.
4B-	4d	8a	.
.	.	8dd	.
=12	=12	=12	=12
4r	8e-	{16dd	2.r
.	.	16cc}	.
.	8r	{16b-	.
.	.	16a}	.
2A	2r	{4g	.
.	.	16.f#T}	.
.	.	{32d	.
.	.	32en	.
.	.	32f#	.
.	.	32g	.
.	.	32a}	.
=13	=13	=13	=13
8G	8d	8b-	2.r
8r	8r	{16dd	.
.	.	16cc	.
2r	2r	16b-	.
.	.	16a	.
.	.	16g	.
.	.	16fn	.
.	.	16e	.
.	.	16d	.
.	.	16c#	.
.	.	16d}	.
=14	=14	=14	=14
2.r	2r	{16G	2.r
.	.	16e	.
.	.	16cc#	.
.	.	16bb-}	.
.	.	4.aa	.
.	8r	.	.
.	8g	8cc#	.
=15	=15	=15	=15
2.r	4f	8dd	4r
.	.	8a	.
.	4e	4cc#	4gg
.	4d	4dd	16gg
.	.	.	{16ff
.	.	.	16ee
.	.	.	16ff}
=16	=16	=16	=16
2.r	2.a	4dd	2.ee
.	.	8cc#	.
.	.	8bn	.
.	.	4cc#	.
=17	=17	=17	=17
2.r	4a	4cc#	{8.ee
.	.	.	32ff
.	.	.	32gg}
.	2g	2r	4.cc#T
.	.	.	8cc#
=18	=18	=18	=18
2.r	8f#	2.r	16dd
.	.	.	{16ccn
.	8r	.	16bn
.	.	.	16cc}
.	8fn	.	[8b
.	4.r	.	16b]
.	.	.	{16dd
.	.	.	16ee
.	.	.	16gg
.	.	.	16ff
.	.	.	32aa
.	.	.	32gg}
=19	=19	=19	=19
2.r	4e	4cc	4gg
.	4d	4cc	8ff
.	.	.	8ee
.	4g	4bn	8ff
.	.	.	8gg
=20	=20	=20	=20
8c	8g	8cc	8ee
8r	8r	8r	16dd
.	.	.	16cc
2r	2r	2r	[4bb-
.	.	.	16bb-]
.	.	.	{16aa-
.	.	.	16ff#
.	.	.	16gg}
=21	=21	=21	=21
2.r	2.r	4cc	4ff#T
.	.	8b-	{8gg
.	.	8r	8dd}
.	.	8g	{8ee-
.	.	8r	8b-}
=22	=22	=22	=22
2.r	2.r	4g	8cc
.	.	.	{16dd
.	.	.	16ee-}
.	.	2r	8f#
.	.	.	8dd
.	.	.	{16cc
.	.	.	16b-
.	.	.	16a
.	.	.	16g}
=23	=23	=23	=23
2.r	2.r	2r	{16cc
.	.	.	16ee-}
.	.	.	{16bb-
.	.	.	16aa}
.	.	.	{16b-
.	.	.	16dd}
.	.	.	{16aa
.	.	.	16gg}
.	.	8d	16a
.	.	.	{16cc
.	.	8r	16gg
.	.	.	16ff#}
=24	=24	=24	=24
4r	2.r	2.r	4gg
[4G	.	.	2r
16G]	.	.	.
{32g	.	.	.
32a	.	.	.
32b-	.	.	.
32cc	.	.	.
32dd	.	.	.
32f}	.	.	.
=25	=25	=25	=25
8.e	2.r	8.cc	8.bb-
16r	.	16r	16aa
2r	.	2r	{16gg
.	.	.	16ff
.	.	.	16ee
.	.	.	32dd
.	.	.	32cc}
.	.	.	8.b-T
.	.	.	16a
=26	=26	=26	=26
8f	2.r	2.r	{8a
8r	.	.	16cc
.	.	.	16bn}
8f#	.	.	{8b
4.r	.	.	8cc}
.	.	.	8.d
.	.	.	16cc
=27	=27	=27	=27
8g	2.r	2.r	{8bn
8r	.	.	16dd
.	.	.	16cc#}
8g#	.	.	{8cc#
8r	.	.	8dd}
16.e	.	.	4r
{32ff	.	.	.
16ee	.	.	.
32ff	.	.	.
32dd}	.	.	.
=28	=28	=28	=28
{16dd	2.r	2.r	2.r
16cc#	.	.	.
16ee}	.	.	.
16a	.	.	.
{16a	.	.	.
16gn	.	.	.
16b-}	.	.	.
16d	.	.	.
{16d	.	.	.
16c#	.	.	.
16e}	.	.	.
16A	.	.	.
=29	=29	=29	=29
4B-	4g	4cc#	4ee
2A	2a	2dd	2ff
=30	=30	=30	=30
16G	2.r	2.r	2.r
{16b-	.	.	.
16ee-	.	.	.
16gg	.	.	.
16ee-	.	.	.
16b-	.	.	.
16g	.	.	.
16e-}	.	.	.
16bb-	.	.	.
{32cc#	.	.	.
32dd	.	.	.
16een}	.	.	.
16g	.	.	.
=31	=31	=31	=31
{16f	2.r	2.r	2.r
16a	.	.	.
16dd}	.	.	.
{16aa	.	.	.
16gg}	.	.	.
{16cc#	.	.	.
16dd}	.	.	.
16ff	.	.	.
{16a	.	.	.
16dd	.	.	.
16ee}	.	.	.
16cc#	.	.	.
=32	=32	=32	=32
8.dd	2.r	2.r	2.r
{16ccn	.	.	.
16b-	.	.	.
16a	.	.	.
16g	.	.	.
16f	.	.	.
16e	.	.	.
16d	.	.	.
16c#	.	.	.
32d	.	.	.
32e}	.	.	.
=33	=33	=33	=33
4A	4a	4cc#	{8.ee
.	.	.	32ff
.	.	.	32gg}
2r	2g	2r	4.cc#T
.	.	.	8cc#
=34	=34	=34	=34
2.r	8f#	2.r	16dd
.	.	.	{16ccn
.	8r	.	16bn
.	.	.	16cc}
.	8fn	.	[8b
.	4.r	.	16b]
.	.	.	{16dd
.	.	.	16ee
.	.	.	16gg
.	.	.	16ff
.	.	.	32aa
.	.	.	32gg}
=35	=35	=35	=35
2.r	4e	4cc	4gg
.	4d	4cc	8ff
.	.	.	8ee
.	4g	4bn	8ff
.	.	.	8gg
=36	=36	=36	=36
8c	8g	8cc	8ee
8r	8r	8r	16dd
.	.	.	16cc
2r	2r	2r	[4bb-
.	.	.	16bb-]
.	.	.	{16aa-
.	.	.	16ff#
.	.	.	16gg}
=37	=37	=37	=37
2.r	2.r	4cc	4ff#T
.	.	8b-	{8gg
.	.	8r	8dd}
.	.	8g	{8ee-
.	.	8r	8b-}
=38	=38	=38	=38
2.r	2.r	4g	8cc
.	.	.	{16dd
.	.	.	16ee-}
.	.	2r	8f#
.	.	.	8dd
.	.	.	{16cc
.	.	.	16b-
.	.	.	16a
.	.	.	16g}
=39	=39	=39	=39
2.r	2.r	2r	{16cc
.	.	.	16ee-}
.	.	.	{16bb-
.	.	.	16aa}
.	.	.	{16b-
.	.	.	16dd}
.	.	.	{16aa
.	.	.	16gg}
.	.	8d	16a
.	.	.	{16cc
.	.	8r	16gg
.	.	.	16ff#}
=40	=40	=40	=40
4r	2.r	2.r	4gg
[4G	.	.	2r
16G]	.	.	.
{32g	.	.	.
32a	.	.	.
32b-	.	.	.
32cc	.	.	.
32dd	.	.	.
32f}	.	.	.
=41	=41	=41	=41
8.e	2.r	8.cc	8.bb-
16r	.	16r	16aa
2r	.	2r	{16gg
.	.	.	16ff
.	.	.	16ee
.	.	.	32dd
.	.	.	32cc}
.	.	.	8.b-T
.	.	.	16a
=42	=42	=42	=42
8f	2.r	2.r	{8a
8r	.	.	16cc
.	.	.	16bn}
8f#	.	.	{8b
4.r	.	.	8cc}
.	.	.	8.d
.	.	.	16cc
=43	=43	=43	=43
8g	2.r	2.r	{8bn
8r	.	.	16dd
.	.	.	16cc#}
8g#	.	.	{8cc#
8r	.	.	8dd}
16.e	.	.	4r
{32ff	.	.	.
16ee	.	.	.
32ff	.	.	.
32dd}	.	.	.
=44	=44	=44	=44
{16dd	2.r	2.r	2.r
16cc#	.	.	.
16ee}	.	.	.
16a	.	.	.
{16a	.	.	.
16gn	.	.	.
16b-}	.	.	.
16d	.	.	.
{16d	.	.	.
16c#	.	.	.
16e}	.	.	.
16A	.	.	.
=45	=45	=45	=45
4B-	4g	4cc#	4ee
2A	2a	2dd	2ff
=46	=46	=46	=46
16G	2.r	2.r	2.r
{16b-	.	.	.
16ee-	.	.	.
16gg	.	.	.
16ee-	.	.	.
16b-	.	.	.
16g	.	.	.
16e-}	.	.	.
16bb-	.	.	.
{32cc#	.	.	.
32dd	.	.	.
16een}	.	.	.
16g	.	.	.
=47	=47	=47	=47
{16f	2.r	2.r	2.r
16a	.	.	.
16dd}	.	.	.
{16aa	.	.	.
16gg}	.	.	.
{16cc#	.	.	.
16dd}	.	.	.
16ff	.	.	.
{16a	.	.	.
16dd	.	.	.
16ee}	.	.	.
16cc#	.	.	.
=48	=48	=48	=48
16dd	2.r	2.r	2.r
16d	.	.	.
16f	.	.	.
16a	.	.	.
{16g	.	.	.
16f	.	.	.
16e	.	.	.
16d	.	.	.
16c	.	.	.
16B-}	.	.	.
{16c	.	.	.
16A}	.	.	.
=49	=49	=49	=49
16B-	2.r	2.r	2.r
{16dd	.	.	.
16cc	.	.	.
16a}	.	.	.
{16b-	.	.	.
16f#	.	.	.
16g}	.	.	.
16b-	.	.	.
{16dd	.	.	.
16ffn	.	.	.
16ee}	.	.	.
16cc#	.	.	.
=50	=50	=50	=50
16dd	2.r	2.r	2.r
{16Bn	.	.	.
16d	.	.	.
16fn	.	.	.
16g#	.	.	.
16bn	.	.	.
16dd}	.	.	.
{16ee	.	.	.
16ff}	.	.	.
{16cc#	.	.	.
16dd}	.	.	.
{16g	.	.	.
=51	=51	=51	=51
16a}	2.r	2.r	2.r
{32b-	.	.	.
32a	.	.	.
16gn	.	.	.
16f}	.	.	.
{16e	.	.	.
32d	.	.	.
32c#	.	.	.
16d}	.	.	.
16G#	.	.	.
{16A	.	.	.
16e	.	.	.
16gn}	.	.	.
16cc#	.	.	.
=52	=52	=52	=52
4dd	2.r	2.r	2.r
2d	.	.	.
==	==	==	==
*-	*-	*-	*-
